img/icon-email-black.svg

<svg width="128" height="128" viewBox="0 0 128 128" fill="none" xmlns="http://www.w3.org/2000/svg">
<path d="M11.7987 24.4377L56.3386 61.0284C58.2979 62.6487 61.1714 63.4588 63.9143 63.3238C66.6572 63.4588 69.4002 62.7837 71.49 61.0284L116.161 24.4377C119.687 21.4672 118.904 19.1719 114.332 19.1719H13.6273C8.92513 19.1719 8.14148 21.6023 11.7987 24.4377Z" fill="black"/>
<path d="M119.295 34.1594L70.5755 72.3704C68.7469 73.7206 66.3958 74.5307 64.0447 74.3957C61.6936 74.3957 59.2119 73.7206 57.3832 72.3704L8.6636 34.1594C5.00636 31.324 2.13281 32.8092 2.13281 37.535V100.32C2.13281 105.045 5.79004 108.826 10.3616 108.826H117.728C122.299 108.826 125.956 104.91 125.956 100.32V37.535C125.826 32.8092 122.822 31.324 119.295 34.1594Z" fill="black"/>
</svg>

<svg width="128" height="128" fill="none" xmlns="http://www.w3.org/2000/svg"><path d="M11.799 24.438l44.54 36.59c1.959 1.62 4.832 2.43 7.575 2.296 2.743.135 5.486-.54 7.576-2.296l44.671-36.59c3.526-2.97 2.743-5.266-1.829-5.266H13.627c-4.702 0-5.486 2.43-1.828 5.266z" fill="#000"/><path d="M119.295 34.16l-48.72 38.21c-1.828 1.35-4.18 2.16-6.53 2.026-2.351 0-4.833-.675-6.662-2.026L8.663 34.16c-3.657-2.836-6.53-1.35-6.53 3.375v62.785c0 4.725 3.657 8.506 8.229 8.506h107.366c4.571 0 8.228-3.916 8.228-8.506V37.535c-.13-4.726-3.134-6.211-6.661-3.376z" fill="#000"/></svg>
